src/icons/fb.inline.svg

<svg viewBox="0 0 7.22 15.47"><path d="M6.94 7.73h-2.14v7.74h-3.2v-7.74h-1.6v-2.66h1.6v-1.6c0-2.18.9-3.47 3.47-3.47h2.14v2.67h-1.34c-1 0-1.06.37-1.06 1.06v1.34h2.41l-.28 2.66z" fill="currentColor" /></svg>

<svg xmlns="http://www.w3.org/2000/svg" viewBox="0 0 7.22 15.47"><defs><style>.cls-1{fill:#fff;opacity:0.5;}</style></defs><title>Asset 3</title><g id="Layer_2" data-name="Layer 2"><g id="Layout"><path class="cls-1" d="M6.94,7.73H4.8v7.74H1.6V7.73H0V5.07H1.6V3.47C1.6,1.29,2.5,0,5.07,0H7.21V2.67H5.87c-1,0-1.06.37-1.06,1.06V5.07H7.22L6.94,7.73Z"/></g></g></svg>
